svgs/sharp-light/filter.svg

<svg xmlns="http://www.w3.org/2000/svg" viewBox="0 0 512 512"><!--! Font Awesome Pro 6.6.0 by @fontawesome - https://fontawesome.com License - https://fontawesome.com/license (Commercial License) Copyright 2024 Fonticons, Inc. --><path d="M224 308.2l-7.7-9L32 84.2 32 64l448 0 0 20.2-184.3 215-7.7 9 0 11.8 0 121.5-64-56 0-65.5 0-11.8zM0 96L192 320l0 80 96 84 32 28 0-42.5L320 320 512 96l0-32 0-32-32 0L32 32 0 32 0 64 0 96z"/></svg>

<svg xmlns="http://www.w3.org/2000/svg" viewBox="0 0 512 512"><!--! Font Awesome Pro 6.5.2 by @fontawesome - https://fontawesome.com License - https://fontawesome.com/license (Commercial License) Copyright 2024 Fonticons, Inc. --><path d="M224 308.2l-7.7-9L32 84.2V64H480V84.2l-184.3 215-7.7 9V320 441.5l-64-56V320 308.2zM0 96L192 320v80l96 84 32 28V469.5 320L512 96V64 32H480 32 0V64 96z"/></svg>
